lib/icons/star-filled.svg

<svg width="16" height="16" viewBox="0 0 16 16" fill="none" xmlns="http://www.w3.org/2000/svg">
<path d="M6.97743 0.670301C7.36977 -0.223432 8.63023 -0.223434 9.02257 0.670299L10.52 4.08135C10.6783 4.44192 11.0126 4.6928 11.4012 4.74263L15.0221 5.20688C15.9495 5.32579 16.3308 6.46939 15.6622 7.12688L12.9171 9.82648C12.6503 10.0889 12.5311 10.4679 12.5995 10.8369L13.309 14.6663C13.4845 15.6135 12.4722 16.3297 11.6456 15.8432L8.56445 14.0297C8.21579 13.8245 7.78421 13.8245 7.43555 14.0297L4.35439 15.8432C3.52777 16.3297 2.51551 15.6135 2.691 14.6663L3.40049 10.8369C3.46886 10.4679 3.34975 10.0889 3.08294 9.82648L0.33781 7.12688C-0.330767 6.46939 0.0504746 5.32579 0.977878 5.20688L4.59876 4.74263C4.98739 4.6928 5.32173 4.44192 5.48002 4.08135L6.97743 0.670301Z" fill="#FFAD4D"/>
</svg>

<svg width="16" height="16" fill="none" xmlns="http://www.w3.org/2000/svg"><path d="M6.977.67c.393-.893 1.653-.893 2.046 0l1.497 3.411c.158.36.493.612.881.662l3.621.464c.928.119 1.309 1.262.64 1.92l-2.745 2.7a1.13 1.13 0 0 0-.317 1.01l.709 3.83c.176.947-.837 1.663-1.663 1.176L8.564 14.03a1.112 1.112 0 0 0-1.128 0l-3.082 1.813c-.826.487-1.838-.23-1.663-1.177l.71-3.83a1.13 1.13 0 0 0-.318-1.01l-2.745-2.7c-.669-.657-.288-1.8.64-1.92l3.62-.463c.39-.05.724-.301.882-.662L6.977.671Z" fill="#FFAD4D"/></svg>
